Numix-Light/16/status/indicator-keyboard-Ml-1.svg

<?xml version="1.0" encoding="UTF-8" standalone="no"?>
<svg
   xmlns:dc="http://purl.org/dc/elements/1.1/"
   xmlns:cc="http://creativecommons.org/ns#"
   xmlns:rdf="http://www.w3.org/1999/02/22-rdf-syntax-ns#"
   xmlns:svg="http://www.w3.org/2000/svg"
   xmlns="http://www.w3.org/2000/svg"
   xmlns:sodipodi="http://sodipodi.sourceforge.net/DTD/sodipodi-0.dtd"
   xmlns:inkscape="http://www.inkscape.org/namespaces/inkscape"
   viewBox="0 0 16 16"
   id="svg2"
   version="1.1"
   inkscape:version="0.91 r13725"
   sodipodi:docname="indicator-keyboard-Ml-1.svg">
  <metadata
     id="metadata14">
    <rdf:RDF>
      <cc:Work
         rdf:about="">
        <dc:format>image/svg+xml</dc:format>
        <dc:type
           rdf:resource="http://purl.org/dc/dcmitype/StillImage" />
      </cc:Work>
    </rdf:RDF>
  </metadata>
  <defs
     id="defs12" />
  <sodipodi:namedview
     pagecolor="#ffffff"
     bordercolor="#666666"
     borderopacity="1"
     objecttolerance="10"
     gridtolerance="10"
     guidetolerance="10"
     inkscape:pageopacity="0"
     inkscape:pageshadow="2"
     inkscape:window-width="640"
     inkscape:window-height="480"
     id="namedview10"
     showgrid="false"
     inkscape:zoom="14.75"
     inkscape:cx="8"
     inkscape:cy="8"
     inkscape:window-x="65"
     inkscape:window-y="24"
     inkscape:window-maximized="0"
     inkscape:current-layer="svg2" />
  <path
     style="fill:#353535;fill-opacity:1"
     d="M 1.5996094 0 C 0.71320937 2.9605947e-16 0 0.71320937 0 1.5996094 L 0 14.400391 C 2.9605947e-16 15.286791 0.71320937 16 1.5996094 16 L 14.400391 16 C 15.286791 16 16 15.286791 16 14.400391 L 16 1.5996094 C 16 0.71320937 15.286791 0 14.400391 0 L 1.5996094 0 z M 10.730469 4.1113281 L 10.730469 9.9628906 C 10.730469 10.106891 10.743578 10.2225 10.767578 10.3125 C 10.797578 10.3965 10.838578 10.465531 10.892578 10.519531 C 10.946578 10.567531 11.015609 10.604906 11.099609 10.628906 C 11.189609 10.652906 11.296016 10.673406 11.416016 10.691406 L 11.333984 11.177734 C 11.135984 11.171734 10.9625 11.143703 10.8125 11.095703 C 10.6685 11.053703 10.545359 10.988438 10.443359 10.898438 C 10.347359 10.802438 10.27275 10.681109 10.21875 10.537109 C 10.17075 10.387109 10.146484 10.202469 10.146484 9.9804688 L 10.146484 4.2207031 L 10.730469 4.1113281 z M 2.6914062 4.859375 L 3.2324219 4.859375 C 3.4124219 5.159375 3.6045938 5.5063438 3.8085938 5.9023438 C 4.0125938 6.2923438 4.2121562 6.7009531 4.4101562 7.1269531 C 4.6141563 7.5469531 4.8100937 7.9649062 4.9960938 8.3789062 C 5.1880938 8.7869063 5.356 9.154375 5.5 9.484375 C 5.644 9.154375 5.8081406 8.7869063 5.9941406 8.3789062 C 6.1861406 7.9649062 6.3820781 7.5469531 6.5800781 7.1269531 C 6.7840781 6.7009531 6.9874062 6.2923438 7.1914062 5.9023438 C 7.3954062 5.5063438 7.5875781 5.159375 7.7675781 4.859375 L 8.28125 4.859375 C 8.38325 5.807375 8.4672031 6.7998906 8.5332031 7.8378906 C 8.6052031 8.8758906 8.6686563 9.9617029 8.7226562 11.095703 L 8.1015625 11.095703 C 8.0655625 10.129703 8.0226094 9.2080312 7.9746094 8.3320312 C 7.9326094 7.4500313 7.8729219 6.6347656 7.7949219 5.8847656 C 7.7469219 5.9687656 7.6723125 6.1124063 7.5703125 6.3164062 C 7.4683125 6.5204063 7.35075 6.7573437 7.21875 7.0273438 C 7.08675 7.2973438 6.9486875 7.5883906 6.8046875 7.9003906 C 6.6606875 8.2063906 6.5208125 8.5067812 6.3828125 8.8007812 C 6.2448125 9.0887812 6.1179062 9.3555625 6.0039062 9.6015625 C 5.8959062 9.8475625 5.8119531 10.045312 5.7519531 10.195312 L 5.203125 10.195312 C 5.143125 10.045312 5.0554063 9.8475625 4.9414062 9.6015625 C 4.8334063 9.3555625 4.7102656 9.0887812 4.5722656 8.8007812 C 4.4342656 8.5067812 4.2943906 8.2063906 4.1503906 7.9003906 C 4.0063906 7.5883906 3.8683281 7.2973438 3.7363281 7.0273438 C 3.6043281 6.7573437 3.4867656 6.5204063 3.3847656 6.3164062 C 3.2827656 6.1124063 3.2081562 5.9687656 3.1601562 5.8847656 C 3.0821562 6.6347656 3.0187031 7.4500312 2.9707031 8.3320312 C 2.9287031 9.2080312 2.8895156 10.129703 2.8535156 11.095703 L 2.2519531 11.095703 C 2.3059531 9.9617029 2.3656406 8.8758906 2.4316406 7.8378906 C 2.5036406 6.7998906 2.5894063 5.807375 2.6914062 4.859375 z M 13.480469 8.8417969 L 13.748047 8.8417969 L 13.748047 12.896484 L 13.369141 12.896484 L 13.369141 9.421875 C 13.326241 9.468675 13.269419 9.5157063 13.199219 9.5664062 C 13.132919 9.6171063 13.056503 9.66805 12.970703 9.71875 C 12.884903 9.76555 12.794771 9.812575 12.701172 9.859375 C 12.607572 9.902275 12.515475 9.9375437 12.421875 9.9648438 L 12.310547 9.671875 C 12.544547 9.5899751 12.752248 9.4880813 12.935547 9.3632812 C 13.118847 9.2345813 13.301069 9.0601969 13.480469 8.8417969 z "
     id="path4" />
</svg>

<svg xmlns="http://www.w3.org/2000/svg" viewBox="0 0 16 16">
 <path d="m 1.6 0 c -0.886 0 -1.6 0.713 -1.6 1.6 l 0 12.801 c 0 0.886 0.713 1.6 1.6 1.6 l 12.801 0 c 0.886 0 1.6 -0.713 1.6 -1.6 l 0 -12.801 c 0 -0.886 -0.713 -1.6 -1.6 -1.6 l -12.801 0 z m 9.131 4.111 l 0 5.852 c 0 0.144 0.013 0.26 0.037 0.35 c 0.03 0.084 0.071 0.153 0.125 0.207 c 0.054 0.048 0.123 0.085 0.207 0.109 c 0.09 0.024 0.196 0.044 0.316 0.063 l -0.082 0.486 c -0.198 -0.006 -0.371 -0.034 -0.521 -0.082 c -0.144 -0.042 -0.267 -0.107 -0.369 -0.197 c -0.096 -0.096 -0.171 -0.217 -0.225 -0.361 c -0.048 -0.15 -0.072 -0.335 -0.072 -0.557 l 0 -5.76 l 0.584 -0.109 z m -8.04 0.748 l 0.541 0 c 0.18 0.3 0.372 0.647 0.576 1.043 c 0.204 0.39 0.404 0.799 0.602 1.225 c 0.204 0.42 0.4 0.838 0.586 1.252 c 0.192 0.408 0.36 0.775 0.504 1.105 c 0.144 -0.33 0.308 -0.697 0.494 -1.105 c 0.192 -0.414 0.388 -0.832 0.586 -1.252 c 0.204 -0.426 0.407 -0.835 0.611 -1.225 c 0.204 -0.396 0.396 -0.743 0.576 -1.043 l 0.514 0 c 0.102 0.948 0.186 1.941 0.252 2.979 c 0.072 1.038 0.135 2.124 0.189 3.258 l -0.621 0 c -0.036 -0.966 -0.079 -1.888 -0.127 -2.764 c -0.042 -0.882 -0.102 -1.697 -0.18 -2.447 c -0.048 0.084 -0.123 0.228 -0.225 0.432 c -0.102 0.204 -0.22 0.441 -0.352 0.711 c -0.132 0.27 -0.27 0.561 -0.414 0.873 c -0.144 0.306 -0.284 0.606 -0.422 0.9 c -0.138 0.288 -0.265 0.555 -0.379 0.801 c -0.108 0.246 -0.192 0.444 -0.252 0.594 l -0.549 0 c -0.06 -0.15 -0.148 -0.348 -0.262 -0.594 c -0.108 -0.246 -0.231 -0.513 -0.369 -0.801 c -0.138 -0.294 -0.278 -0.594 -0.422 -0.9 c -0.144 -0.312 -0.282 -0.603 -0.414 -0.873 c -0.132 -0.27 -0.25 -0.507 -0.352 -0.711 c -0.102 -0.204 -0.177 -0.348 -0.225 -0.432 c -0.078 0.75 -0.141 1.565 -0.189 2.447 c -0.042 0.876 -0.081 1.798 -0.117 2.764 l -0.602 0 c 0.054 -1.134 0.114 -2.22 0.18 -3.258 c 0.072 -1.038 0.158 -2.031 0.26 -2.979 z m 10.789 3.982 l 0.268 0 l 0 4.055 l -0.379 0 l 0 -3.475 c -0.043 0.047 -0.1 0.094 -0.17 0.145 c -0.066 0.051 -0.143 0.102 -0.229 0.152 c -0.086 0.047 -0.176 0.094 -0.27 0.141 c -0.094 0.043 -0.186 0.078 -0.279 0.105 l -0.111 -0.293 c 0.234 -0.082 0.442 -0.184 0.625 -0.309 c 0.183 -0.129 0.366 -0.303 0.545 -0.521 z" style="fill:#353535;fill-opacity:1"/>
</svg>
